assets/images/icons/download.svg

<svg viewBox="0 0 25 25" fill="none" xmlns="http://www.w3.org/2000/svg">
<path d="M13.4259 0.925926C13.4259 0.414551 13.0114 0 12.5 0C11.9886 0 11.5741 0.414551 11.5741 0.925926V14.1226L6.72469 9.27325C6.36309 8.91166 5.77683 8.91166 5.41523 9.27325C5.05363 9.63485 5.05363 10.2211 5.41523 10.5827L11.8453 17.0128C12.2069 17.3743 12.7931 17.3743 13.1547 17.0128L19.5848 10.5827C19.9464 10.2211 19.9464 9.63485 19.5848 9.27325C19.2232 8.91166 18.6369 8.91166 18.2753 9.27325L13.4259 14.1226V0.925926Z" fill="white"/>
<path d="M1.85185 16.358C1.85185 15.8466 1.4373 15.4321 0.925926 15.4321C0.414551 15.4321 0 15.8466 0 16.358V21.5021C0 22.4298 0.368532 23.3195 1.02452 23.9755C1.68051 24.6315 2.57023 25 3.49794 25H21.5021C22.4298 25 23.3195 24.6315 23.9755 23.9755C24.6315 23.3195 25 22.4298 25 21.5021V16.358C25 15.8466 24.5854 15.4321 24.0741 15.4321C23.5627 15.4321 23.1481 15.8466 23.1481 16.358V21.5021C23.1481 21.9386 22.9747 22.3573 22.666 22.666C22.3573 22.9747 21.9386 23.1481 21.5021 23.1481H3.49794C3.06137 23.1481 2.64268 22.9747 2.33398 22.666C2.02528 22.3573 1.85185 21.9386 1.85185 21.5021V16.358Z" fill="white"/>
</svg>

<svg viewBox="0 0 25 25" fill="none" xmlns="http://www.w3.org/2000/svg"><path d="M13.426.926a.926.926 0 1 0-1.852 0v13.197l-4.85-4.85a.926.926 0 0 0-1.309 1.31l6.43 6.43a.926.926 0 0 0 1.31 0l6.43-6.43a.926.926 0 1 0-1.31-1.31l-4.85 4.85V.926z" fill="#fff"/><path d="M1.852 16.358a.926.926 0 1 0-1.852 0v5.144A3.498 3.498 0 0 0 3.498 25h18.004A3.498 3.498 0 0 0 25 21.502v-5.144a.926.926 0 0 0-1.852 0v5.144a1.646 1.646 0 0 1-1.646 1.646H3.498a1.646 1.646 0 0 1-1.646-1.646v-5.144z" fill="#fff"/></svg>
